<?xml version="1.0" encoding="UTF-8"?>
<map version="1.10" tiledversion="1.11.2" orientation="orthogonal" renderorder="right-down" width="30" height="20" tilewidth="16" tileheight="16" infinite="0" nextlayerid="2" nextobjectid="1">
 <tileset firstgid="1" source="../../tilesets/summer_forest/summer forest wang tiles.tsx"/>
 <layer id="1" name="Tile Layer 1" width="30" height="20">
  <data encoding="csv">
194,386,386,322,258,194,194,7,8,8,391,8,8,264,72,323,263,391,8,9,130,386,322,258,130,7,391,391,9,322,
194,194,322,194,322,7,8,264,387,72,195,195,72,323,259,72,323,72,195,263,9,258,7,8,8,264,323,131,327,322,
130,130,194,258,130,328,323,323,72,199,392,392,392,200,461,462,462,462,462,462,1627,457,328,72,131,387,387,199,137,386,
386,258,258,386,258,135,392,136,392,137,130,194,455,1628,718,520,520,514,325,532,526,711,1628,462,462,462,463,327,258,386,
386,194,322,194,130,130,130,130,322,258,386,455,712,532,520,514,526,526,389,389,325,197,526,197,197,197,527,73,194,322,
394,394,394,394,12,386,322,194,130,258,322,519,197,473,474,474,474,474,474,474,474,474,475,197,532,325,527,263,9,194,
75,81,257,129,266,11,12,130,194,258,194,519,325,537,523,529,538,535,134,538,538,517,729,474,475,389,527,323,73,130,
139,139,203,87,87,75,266,11,12,258,258,583,648,537,535,134,535,529,535,390,262,535,390,198,539,514,527,199,137,322,
194,194,138,395,203,129,75,385,266,12,194,258,519,537,262,529,535,326,535,326,517,535,198,538,539,532,527,73,258,258,
258,258,258,194,138,139,203,87,81,76,386,322,519,601,666,198,517,523,523,517,523,390,198,134,539,653,591,327,322,322,
194,130,194,258,258,258,898,209,385,330,322,386,519,197,537,538,535,134,262,134,517,390,665,602,603,1561,136,137,130,322,
386,130,7,8,9,130,328,337,75,266,12,130,519,520,601,666,538,517,326,535,529,198,539,526,197,521,7,8,9,130,
386,386,71,259,327,194,135,778,385,129,841,8,1626,261,532,601,602,602,602,602,602,602,603,197,197,521,71,323,327,130,
258,7,264,195,263,8,8,972,209,385,272,18,589,654,325,532,532,514,389,532,514,532,526,526,647,585,328,72,327,258,
258,71,323,259,195,72,259,199,778,321,385,777,392,1117,584,648,514,261,647,584,584,584,584,584,585,7,264,323,327,194,
386,71,323,323,259,72,195,263,972,209,193,330,194,386,194,1113,590,1563,585,258,258,322,386,322,7,264,387,323,73,386,
194,135,200,387,387,323,323,259,131,80,257,76,322,7,391,264,323,327,130,258,322,258,7,8,264,259,387,199,137,194,
386,322,71,259,195,323,387,323,323,80,321,266,833,264,195,387,131,263,8,8,9,130,71,195,195,131,72,263,391,391,
386,322,135,200,72,195,72,195,259,337,385,129,82,72,72,259,72,259,131,195,263,391,264,195,72,323,72,72,72,259,
386,130,322,135,200,323,259,323,387,144,209,129,82,72,387,131,195,72,387,195,323,131,259,323,323,259,195,72,72,199
</data>
 </layer>
</map>
