<?xml version="1.0" encoding="UTF-8"?>
<map version="1.10" tiledversion="1.11.2" orientation="orthogonal" renderorder="right-down" width="30" height="20" tilewidth="16" tileheight="16" infinite="0" nextlayerid="5" nextobjectid="4">
 <tileset firstgid="1" source="../../tilesets/summer_forest/summer forest wang tiles.tsx"/>
 <tileset firstgid="2049" source="../../tilesets/summer_forest/summer 32x32.tsx"/>
 <tileset firstgid="2056" source="../../tilesets/characters/player/player.tsx"/>
 <tileset firstgid="2312" source="../../tilesets/summer_forest/summer forest.tsx"/>
 <tileset firstgid="2984" source="../../tilesets/summer_forest/summer forest, tree wall (canopy only).tsx"/>
 <tileset firstgid="3008" source="../../tilesets/summer_forest/summer trees 80x112.tsx"/>
 <tileset firstgid="3011" source="../../tilesets/summer_forest/collision &amp; alpha.tsx"/>
 <layer id="1" name="Tile Layer 1" width="30" height="20">
  <data encoding="csv">
322,386,258,74,129,321,257,87,330,130,7,264,323,263,8,9,130,130,386,386,386,71,72,195,72,387,327,130,194,194,
386,130,194,331,257,193,257,208,897,258,328,195,259,387,131,263,9,258,130,322,386,135,200,387,131,323,327,130,258,130,
194,258,130,898,209,129,193,336,327,322,135,392,136,200,323,195,263,9,386,322,130,386,135,392,136,136,137,258,258,258,
386,386,7,264,80,75,193,336,73,322,130,194,322,135,200,195,387,327,130,258,322,322,130,322,322,194,130,130,386,386,
130,194,71,131,80,321,257,336,73,194,386,386,130,386,71,195,131,327,130,194,130,194,130,130,322,130,194,386,130,386,
194,130,135,200,337,75,129,272,961,130,258,130,10,394,970,17,18,327,130,322,386,194,7,8,8,9,130,10,11,11,
386,7,391,264,144,209,75,75,76,10,11,11,267,129,385,87,336,263,391,9,194,194,71,195,387,843,11,267,87,81,
322,71,131,131,72,337,193,385,266,267,385,321,75,321,321,75,272,18,72,843,11,12,962,400,17,273,321,385,321,202,
322,135,200,131,195,80,129,75,129,87,87,87,321,385,193,321,75,272,400,273,75,266,267,75,129,385,87,202,139,140,
322,322,328,323,131,337,385,257,81,257,129,81,257,87,193,75,385,321,75,87,193,193,385,257,208,145,905,140,194,194,
322,258,135,136,136,770,203,75,257,193,87,193,193,129,385,193,75,321,193,202,139,906,401,401,858,392,137,130,194,258,
194,322,258,386,194,194,331,321,129,385,257,321,129,81,87,193,385,75,75,330,386,71,72,131,327,322,322,322,386,194,
258,258,322,386,386,130,331,193,257,81,193,385,75,321,129,385,75,208,145,971,9,135,392,392,137,322,386,322,386,258,
322,322,130,258,194,7,972,209,81,129,321,87,87,257,75,385,129,82,323,323,327,386,130,130,258,386,194,386,130,322,
322,386,386,258,386,71,131,337,129,257,321,87,321,321,129,193,385,272,18,259,73,130,258,258,130,194,386,386,258,194,
194,386,194,322,7,264,259,779,906,401,209,257,208,905,395,203,385,193,272,17,961,386,386,322,322,322,258,130,258,258,
322,130,130,194,71,72,387,263,264,72,144,145,146,73,322,138,203,321,87,321,841,9,386,194,258,258,194,258,130,322,
130,258,322,386,135,200,387,323,323,195,72,199,136,137,322,130,138,906,209,321,336,327,130,322,194,322,258,258,130,322,
322,130,322,258,194,135,136,392,136,136,136,137,258,130,194,194,194,328,337,129,272,961,322,386,386,194,194,386,386,386,
322,386,130,322,258,322,386,322,258,258,194,194,194,194,194,130,7,264,337,129,129,330,386,322,194,194,194,194,322,194
</data>
 </layer>
 <layer id="2" name="objects" width="30" height="20">
  <data encoding="csv">
2640,0,0,0,0,0,0,0,3008,0,0,0,0,0,3008,0,0,0,0,0,0,0,0,0,0,0,0,0,0,0,
2672,2673,0,0,0,0,0,0,0,0,0,3008,0,0,0,0,0,3008,0,0,0,0,0,0,3009,0,0,0,0,0,
2704,2705,0,0,0,0,0,0,0,3010,0,0,0,3009,0,0,0,0,0,0,0,3008,0,0,0,0,0,0,0,0,
2736,2737,0,0,0,0,0,0,0,0,0,3009,2828,0,0,2866,0,0,0,0,0,0,0,0,0,0,0,3008,0,0,
2768,0,0,0,0,0,0,3008,0,0,0,0,0,0,0,3010,0,0,0,0,0,0,2828,2054,3008,0,0,0,0,0,
0,0,0,0,0,0,0,0,0,0,2536,0,0,0,0,0,0,2537,0,0,0,0,0,0,0,0,0,0,0,0,
0,0,0,0,0,0,0,0,0,0,0,0,2051,0,0,0,0,0,3008,0,0,0,0,0,0,0,0,0,0,0,
0,0,0,0,0,0,0,0,0,0,0,0,0,0,0,0,0,0,0,0,0,0,0,0,0,0,0,0,0,0,
3009,0,0,0,0,0,0,0,0,2051,0,0,0,0,0,2051,0,0,0,0,0,0,0,0,0,0,0,0,0,0,
0,0,0,0,0,0,0,0,0,0,0,0,0,0,0,0,0,0,0,0,0,0,0,0,0,0,0,0,0,0,
0,0,0,0,0,0,0,0,0,0,0,0,0,0,0,0,0,0,0,0,0,0,0,0,0,0,0,0,0,0,
0,0,0,0,0,0,0,0,0,0,0,0,0,0,0,0,0,0,0,0,0,0,0,0,0,0,0,0,0,0,
0,0,0,0,0,0,0,0,0,2051,0,0,0,0,0,2051,0,0,0,0,0,0,0,0,0,0,3009,0,0,0,
2828,0,0,0,0,0,0,0,0,0,0,0,0,0,0,0,0,0,0,2569,0,0,0,0,0,0,0,0,0,0,
3008,0,0,0,0,0,0,0,0,0,0,0,2051,0,0,0,0,0,0,0,0,0,0,3008,0,0,0,0,0,0,
0,0,0,0,2053,0,0,0,0,0,0,0,0,0,0,0,0,0,0,0,0,0,0,2505,0,0,0,0,0,0,
0,0,0,0,0,0,0,0,0,0,0,0,0,0,0,0,0,0,0,0,0,0,0,0,3010,0,3009,0,0,0,
0,0,0,0,0,0,0,0,0,0,0,0,0,0,0,0,0,0,0,0,0,0,3008,0,0,0,0,0,0,0,
0,0,0,0,0,0,0,0,0,2049,0,0,0,0,0,0,0,0,0,0,0,0,2828,0,0,0,0,0,0,0,
3008,0,0,0,3010,0,0,0,0,0,0,0,0,2828,0,0,0,0,0,0,0,0,0,0,3009,0,0,3010,0,0
</data>
 </layer>
 <objectgroup id="3" name="Object Layer 1">
  <object id="3" template="../../templates/player.tx" x="175.82" y="185.686"/>
 </objectgroup>
 <layer id="4" name="collision" width="30" height="20" visible="0">
  <data encoding="csv">
3011,0,0,0,0,0,0,0,0,3011,0,0,0,0,0,0,0,0,0,0,0,0,0,0,0,0,0,0,0,0,
3011,0,0,0,0,0,0,0,0,3011,0,0,0,0,0,0,0,0,0,0,0,0,0,0,0,0,0,0,0,0,
3011,3011,0,0,0,0,0,0,0,3011,3011,3011,3011,0,3011,3011,3011,3011,0,0,0,3011,3011,3011,3011,0,0,0,0,0,
0,3011,0,0,0,0,0,0,3011,3011,3011,0,3011,3011,3011,0,0,3011,0,0,0,3011,0,3011,3011,0,3011,3011,3011,3011,
0,3011,0,0,0,0,0,0,3011,3011,3011,0,0,0,0,0,0,3011,3011,3011,0,3011,3011,3011,3011,3011,3011,0,0,0,
0,3011,0,0,0,0,0,0,0,0,0,0,0,0,0,0,0,0,0,3011,0,3011,0,0,0,0,0,0,0,0,
0,3011,0,0,0,0,0,0,0,0,0,0,0,0,0,0,0,0,0,3011,3011,3011,0,0,0,0,0,0,0,0,
0,3011,3011,3011,0,0,0,0,0,0,0,0,0,0,0,0,0,0,0,0,0,0,0,0,0,0,0,0,0,0,
0,0,0,3011,0,0,0,0,0,0,0,0,0,0,0,0,0,0,0,0,0,0,0,0,0,0,0,0,0,0,
0,0,0,3011,0,0,0,0,0,0,0,0,0,0,0,0,0,0,0,0,0,0,0,0,0,0,0,0,0,0,
0,0,0,3011,0,0,0,0,0,0,0,0,0,0,0,0,0,0,0,0,0,0,0,0,0,3011,3011,3011,3011,3011,
0,0,3011,3011,0,0,0,0,0,0,0,0,0,0,0,0,0,0,0,0,0,0,0,3011,3011,3011,0,0,0,0,
0,0,3011,3011,0,0,0,0,0,0,0,0,0,0,0,0,0,0,0,0,0,0,0,3011,0,0,0,0,0,0,
0,0,0,3011,0,0,0,0,0,0,0,0,0,0,0,0,0,0,0,0,0,0,0,3011,0,0,0,0,0,0,
0,0,0,3011,0,0,0,0,0,0,0,0,0,0,0,0,0,0,0,0,0,0,0,3011,0,0,0,0,0,0,
0,0,0,3011,3011,3011,0,0,0,0,0,0,0,0,0,0,0,0,0,0,0,0,0,3011,0,0,0,0,0,0,
0,0,0,0,0,3011,0,0,0,0,0,0,0,0,0,0,0,0,0,0,0,0,0,3011,0,0,0,0,0,0,
0,0,0,0,0,3011,0,0,0,0,0,0,0,0,0,0,0,0,0,0,0,0,0,3011,3011,3011,3011,0,0,0,
0,0,0,0,0,3011,3011,0,0,0,0,0,0,0,0,0,0,0,0,0,0,0,0,0,0,0,3011,0,0,0,
0,0,0,0,0,0,3011,0,0,0,0,0,0,0,0,0,0,0,0,0,0,0,0,0,0,0,3011,0,0,0
</data>
 </layer>
</map>
